X:1
T:LOU'SIANA BELLE
T:LOU'SIANA BELLE
T:CH: GROBE. Op: 166.
T:VARIATIONS BY
T:by IMSLP - Pubblico dominio
T:by IMSLP - Pubblico dominio
T:by IMSLP - Pubblico dominio
T:by IMSLP - Pubblico dominio
T:by IMSLP - Pubblico dominio
C:CH: GROBE. Op: 166.
Z:VERIATIONS BY
Z:by IMSLP - Pubblico dominio
%%score { ( 1 3 ) | ( 2 4 ) }
L:1/8
Q:1/4=86
M:6/8
K:C
V:1 treble nm="Piano" snm="Pno."
V:3 treble 
V:2 bass 
V:4 bass 
V:1
!p!"^Andante" C | E3 [CEG]3 |!>(! [CDA]3 [CEG]3!>)! |!<(! [DFGB]3 [EGc]3 | %4
 [FGd]3- [FGd] z!<)!!f! ^d |!ped! [E^Ge]3- [EGe]f!ped-up!B |!ped! c3- c!ped-up!BA | (G>FE) (F>ED) | %8
 C3 z2!ff! z/!ped! [G,B,DF]/ | !fermata![G,B,DF]3 z2!ped-up! |] %10
[M:2/4]!mf![Q:1/4=102]"^Allegretto" C |!ped! EG G>G!ped-up! | AA G>G |!<(! B>B c>c!<)! | %14
!>(! d2 z!>)!!>(! (3G/A/G/!>)! | EGGG | .A(A/c/) .G (3G/A/B/ | c>c d>B | c2 z ::!f! z | %20
!ped! !>![Ec]2 !>![EG]2!ped-up! | [FA]>[FA] [EG]2 | .[FA].[FA] .[EG].[EG] |!>(! [DF]2 [CE] z!>)! | %24
!ped! !>![Ec]2 [EG]>[EG]!ped-up! | [FA]>[FA] [EG] z |!mf! [DB]>[DB] [Ec]>[Ec] | .[Fd].[FB] .[Ec] :| %28
!mf![Q:1/4=130]"^Vivace" C |"^Leggiero"!ped! E/>G/c/>e/ g/>c/e/>g/!ped-up! | %30
!ped! a/>c/f/>a/ g>g!ped-up! |!ped! b/>g/b/>d'/!ped-up!!ped! c'/>g/c'/>e'/!ped-up! | %32
 .d' z z (3G/A/G/ |!ped! E/>G/c/>e/ g/>c/e/>g/!ped-up! |!ped! a/>c/f/>a/ g>g!ped-up! | %35
!ped! c'/>g/c'/>e'/!ped-up!!ped!"_cresc." d'/>g/b/>d'/!ped-up! | c'2 z :: z | %38
!f! !>![Ec]2 !>![EG]2 | [FA]>[FA] .[EG] z |!ped! a/>c/f/>a/!ped-up!!ped! g/>c/e/>g/!ped-up! | %41
!ped! f/>G/d/>f/!ped-up! [ce] z | !>![Ec]2 !>![EG]2 | [FA]>[FA] .[EG] z | %44
!ped! b/>g/b/>d'/!ped-up!!ped! c'/>g/c'/>e'/!ped-up! |!ped! g'/>f'/d'/>b/!ped-up! .c' z :| %46
[Q:1/4=50]"^Lento" A,/!p!B,/ | [A,C]2!ped! [A,CE]2!ped-up! |!>(! [A,DF]2 [A,CE]2!>)! | %49
!<(! .[B,DE].[B,DE]/.[B,DE]/ .[A,CE].[A,CE]/.[A,CE]/!<)! | [^G,B,E]3 [CE]/[B,D]/ | %51
!p! [A,C]2!ped! [A,CE]2!ped-up! | [B,DE]2 [A,CE]2 | c/d/4c/4 B/A/ !>!e>^G | A2 z :: z | %56
!f!"^Più mosso e risoluto"!ped! .[CEc].[CEG]/.[CEG]/ .[CEG].[CEG]/.[CEG]/!ped-up! | %57
 !>![FA]!>![FA] [CEG]2 |!p! ([^FA]/B,/[FA]/B,/) ([EG]/B,/[EG]/B,/) |!<(! [^D^F]2 [G,B,E]2!<)! | %60
!f! [CEc]!ped![CEG]/[CEG]/ [CEG][CEG]/[CEG]/!ped-up! | .[CFA].[CFA] [CEG]2 |!<(! [DGB]2 [EGc]2 | %63
 .[FAd].[DFGB]!<)! .[EGc] :|[M:3/8]!p![Q:1/4=80]"^Vivo ma non troppo" C |!ped! E2 G | %66
 G>GG!ped-up! |!>(! A2 A | G2 G!>)! |!<(! B2 A | B2 G | d3- | d!<)! z!mf! .g | e2 .g | !>!g2 .g | %75
 .a.a.c' | .g2 (3(g/a/b/) |!f!!ped! c'2 a!ped-up! |!ped! d'2 b!ped-up! |!ped! c'3- | %80
 c' z!ped-up! :: z |!ff!!ped! !>![CEc]3!ped-up! | !>![CEG]3 | .[CFA].[CFA].[CFA] | .[CEG] z z | %86
!ped! z (c/f/).a!ped-up! |!ped! z (c/e/).g!ped-up! |!ped! z (G/d/).f!ped-up! | [Gce] z z | %90
!ff!!ped! [CEc]3!ped-up! | [CEG]3 | [CFA][CFA][CFA] | [CEG] z z |!mf! z (d/g/).b | z (e/g/).c' | %96
 z (g/b/).d' | .c' z ::[K:F] z |!p!"_cresc." AB=B | !^!c2 c | (d3 | c3) |"_dim." c2 B | G2 d | %105
 (c3 | A2) z |!mf!!<(! ab=b | c'2 c'!<)! |!>(! (d'3 | g3)!>)! |!<(! f2 e | c'2 e | f3- | f z!<)! :: %115
[K:C]!p! C |!ped! E2 G | G>GG!ped-up! |!>(! A2 A | G2 G!>)! |!<(! !>!B2 G | !>!c2 G | d3- | %123
 d!<)! z!mf! g |!ped! !>!e2 .g | !>!g2 g!ped-up! | .a.a.c' | .g2 (3(g/a/b/) | %128
!ped! !>!c'2 .g!ped-up! |!ped! !>!d'2 a!ped-up! |!ped! c'3-!ped-up! | c' z z | %132
!f!!ped! [CEc]/ z/ z2 | [CEG]3!ped-up! | .[CFA].[CFA].[CFA] | .[CEG] z z | %136
!p! z!ped! (c/f/).a!ped-up! |!ped! z (c/f/).a!ped-up! |!ped! z (G/d/).f!ped-up! | .[Gce] z z | %140
!ff!!ped! [_A,C_A]3 | [_A,C_E]3!ped-up! |!ped! .[_A,_DF].[A,DF].[A,DF]!ped-up! | .[_A,C_E] z z | %144
!<(!!ped! (G,/C/=E/G/c/e/)!<)!!ped-up! |!>(! (g/f/e/d/c/B/)!>)! | %146
!f!!ped! (c/G/e/c/"_cresc."g/e/)!ped-up! | (c'/c/c'/c/c'/c/) |!8va(! (c'/g/e'/c'/g'/e'/) | %149
 .c'' z z |!ped!"_dim." (g'/a'/g'/f'/e'/d'/)!ped-up! |!ped! .c' z!8va)! z!ped-up! | %152
!ped! (g/a/g/f/e/d/)!ped-up! |!ped! c!<(!eg | c'e'g' | f''!ped-up!!<)! z z |!ff! [GBdg] z z | %157
 !fermata!C2!fine! |] %158
V:2
 z | (C,E,G,) (C,E,G,) | (C,F,G,) (C,E,G,) | (G,,D,G,) ((C,E,G,)) | (G,,B,,D,) .G, z z | %5
 [E,,E,][E,B,D][E,B,D] [E,B,D] z z | [E,,A,][E,A,C][E,A,C]"^dim." [^F,C_E]3 | %7
 [G,C=E]2 z [G,,D,F,]3 | [C,E,]3 z2 z/ [G,,,G,,]/ | !fermata![G,,,G,,]3 z2 |][M:2/4] z | %11
 .C,.[E,G,] .C,.[E,G,] | .C,.[F,A,] .C,.[E,G,] | G,,[D,G,] C,[E,G,] | .G,,(.B,,/.D,/) .G, z | %15
 .C,.[E,G,] .C,.[E,G,] | C,[F,A,] [C,E,G,] z | [G,,C,E,]2 [G,,D,F,]2 | .[C,E,](G,,/E,,/) .C,, :: %19
 z | (C,,/C,/C,,/C,/ C,,/C,/C,,/C,/) | (C,,/C,/C,,/C,/ C,,/C,/C,,/C,/) | %22
 (C,,/C,/C,,/C,/ C,,/C,/C,,/C,/) | (G,,/A,,/B,,/G,,/) .[C,,C,] z | %24
 (C,,/C,/C,,/C,/ C,,/C,/C,,/C,/) | (C,,/C,/C,,/C,/ .C,,) z | .G,,.[D,G,] .C,.[E,G,] | %27
 .G,,.[D,G,] .[C,G,] :| z | .C,.[E,G,C] .C,.[E,G,C] | .C,.[F,A,C] .C,.[E,G,C] | %31
 .[G,,G,].[G,DF] .[C,C].[G,CE] | .[G,,G,].[G,B,DF] .[G,B,DF] z | .C,.[E,G,C] .C,.[E,G,C] | %34
 .C,.[F,A,C] .C,.[E,G,C] | .[G,,G,].[G,CE] .[G,,G,].[G,DF] | .[CE](G,/E,/) .C, :: z | %38
 (C,,/D,,/E,,/F,,/ G,,/A,,/B,,/C,/) | F,,/G,,/A,,/F,,/ C,[K:treble] z | [CFA][CFA] [CEG][CEG] | %41
 [G,B,F][G,B,F] [CE] z |[K:bass] (C,,/D,,/E,,/F,,/ G,,/A,,/B,,/C,/) | F,,/G,,/A,,/F,,/ C, z | %44
 .[G,,G,].[G,DF] .[G,,C].[G,CE] | [G,,G,][G,DF] [G,,C].[G,CE] :| z | %47
"^ben marcato" (3(A,,C,E,) (3(A,,C,E,) | (3(A,,D,F,) (3(A,,C,E,) | .[E,,E,].^G,, .A,,.C, | %50
 [E,,E,]3 z | (3(A,,C,E,) (3(A,,C,E,) | (3(^G,,B,,E,) A,,2 |"^rall." [E,A,C]2 [E,B,D]2 | %54
 [A,C]2 z :: z | .[C,,C,].[C,E,G,] .[C,,C,].[C,E,G,] | .F,,.A,, .[C,,C,]2 | %58
 [B,,,B,,][^D,,^D,] [E,,E,]G,, | [B,,,B,,]2 [E,,E,]2 | .[C,,C,].[C,E,G,] .[C,,C,].[C,E,G,] | %61
 .F,,.A,, [C,,C,]2 | [G,,G,]>.[F,,F,] .[E,,E,].[C,,C,] | .[F,,F,].[G,,G,] .[C,,C,] :|[M:3/8] z | %65
 .C,.[E,G,].[E,G,] | .C,.[E,G,].[E,G,] | .C,.[F,A,].[F,A,] | .C,.[E,G,].[E,G,] | %69
 .C,.[D,G,].[D,G,] | .C,.[E,G,].[E,G,] | G,,B,,D, | G, z z | C,[E,G,C][E,G,C] | C,[E,G,C][E,G,C] | %75
 C,[F,A,C][F,A,C] | C,[E,G,C] z |!f! [G,,G,][G,CE] z | [G,,G,][G,DF] z | [CE]G,E, | C, z :: z | %82
 (C,,/C,/C,,/C,/C,,/C,/) | (C,,/C,/C,,/C,/C,,/C,/) | (C,,/C,/C,,/C,/C,,/C,/) | C,, z z | %86
[K:treble]!p! .[CFA]z.[CFA] | .[CFA]z.[CFA] | .[^G,DF]z.[G,DF] | .[CE] z z | %90
[K:bass] ((C,,/C,/C,,/C,/C,,/C,/)) | (C,,/C,/C,,/C,/C,,/C,/) | (C,,/C,/C,,/C,/C,,/C,/) | .C,, z2 | %94
 .[CFA]z.[CFA] | .[CE]z.[CE] | .[G,DF]z.[G,DF] | .[CE] z ::[K:F] z | F,[A,C][A,C] | F,[A,C][A,C] | %101
 F,[B,D][B,D] | F,[A,C][A,C] | C,[E,G,C][E,G,C] | C,[E,G,C][E,G,C] | F,[A,C][A,C] | F,[A,C][A,C] | %107
 F,[A,C][A,C] | F,[A,C][A,C] | B,,[D,G,][D,G,] | B,,[D,G,][D,G,] | F,[A,C][A,C] | F,[A,C][A,C] | %113
 (F,C,A,,) | F,, z ::[K:C] z | C,[E,G,][E,G,] | C,[E,G,][E,G,] | C,[F,A,][F,A,] | C,[E,G,][E,G,] | %120
 G,,[D,G,][D,G,] | C,[E,G,][E,G,] | (G,,B,,D,) | .G, z z | C,[E,G,C][E,G,C] | C,[E,G,C][E,G,C] | %126
 C,[F,A,C][F,A,C] | .C,.[E,G,C] z | .[G,,G,].[G,CE] z | .[G,,G,].[G,DF] z | (CG,E,) | C, z z | %132
 ((C,,/C,/C,,/C,/C,,/C,/)) | ((C,,/C,/C,,/C,/C,,/C,/)) | ((C,,/C,/C,,/C,/C,,/C,/)) | C,, z z | %136
[K:treble] .[CFA]z.[CFA] | .[CEG]z.[CEG] | .[G,DF]z.[G,DF] | .[CE] z z | %140
[K:bass] ((_A,,,/_A,,/A,,,/A,,/A,,,/A,,/)) | ((_A,,,/_A,,/A,,,/A,,/A,,,/A,,/)) | %142
 ((_A,,,/_A,,/A,,,/A,,/A,,,/A,,/)) | [_A,,,_A,,] z z | [G,,,G,,] z z | [G,DF]2 z | %146
 ((C,,/C,/C,,/C,/C,,/C,/)) | ((C,,/C,/C,,/C,/C,,/C,/)) | ((C,,/C,/C,,/C,/C,,/C,/)) | .C,, z2 | %150
 ([G,,B,,D,]/G,/[G,,B,,D,]/G,/[G,,B,,D,]/G,/) | ([C,E,]/G,/[C,E,]/G,/[C,E,]/G,/) | %152
 ([G,,B,,D,]/G,/[G,,B,,D,]/G,/[G,,B,,D,]/G,/) | ([C,E,]/G,/[C,E,]/G,/[C,E,]/G,/) | %154
 ([C,E,]/G,/[C,E,]/G,/[C,E,]/G,/) | [C,E,G,] z z | [G,,B,,D,G,] z2 | [E,G,]2 |] %158
V:3
 x | x6 | x6 | x6 | x6 | x6 | x6 | x6 | x6 | x5 |][M:2/4] x | x4 | x4 | x4 | x4 | x4 | x4 | x4 | %18
 x3 :: x | x4 | x4 | x4 | x4 | x4 | x4 | x4 | x3 :| x | x4 | x4 | x4 | x4 | x4 | x4 | x4 | x3 :: %37
 x | x4 | x4 | x4 | x4 | x4 | x4 | x4 | x4 :| x | x4 | x4 | x4 | x4 | x4 | x4 | x4 | x3 :: x | x4 | %57
 x4 | x4 | B,A, x2 | x4 | x4 | x4 | x3 :|[M:3/8] x | x3 | x3 | x3 | x3 | x3 | x3 | x3 | x3 | x3 | %74
 x3 | x3 | x3 | x3 | x3 | x3 | x2 :: x | x3 | x3 | x3 | x3 | x3 | x3 | x3 | x3 | x3 | x3 | x3 | %93
 x3 | x3 | x3 | x3 | x2 ::[K:F] x | x3 | x3 | x3 | x3 | x3 | x3 | x3 | x3 | x3 | x3 | x3 | x3 | %111
 x3 | x3 | x3 | x2 ::[K:C] x | x3 | x3 | x3 | x3 | x3 | x3 | x3 | x3 | x3 | x3 | x3 | x3 | x3 | %129
 x3 | x3 | x3 | x3 | x3 | x3 | x3 | x3 | x3 | x3 | x3 | x3 | x3 | x3 | x3 | x3 | x3 | x3 | x3 | %148
!8va(! x3 | x3 | x3 | x2!8va)! x | x3 | x3 | x3 | x3 | x3 | x2 |] %158
V:4
 x | x6 | x6 | x6 | x6 | x6 | x6 | x6 | x6 | x5 |][M:2/4] x | x4 | x4 | x4 | x4 | x4 | x4 | x4 | %18
 x3 :: x | x4 | x4 | x4 | x4 | x4 | x4 | x4 | x3 :| x | x4 | x4 | x4 | x4 | x4 | x4 | x4 | x3 :: %37
 x | x4 | x3[K:treble] x | x4 | x4 |[K:bass] x4 | x4 | x4 | x4 :| x | x4 | x4 | x4 | x4 | x4 | x4 | %53
 x4 | x3 :: x | x4 | x4 | x4 | x4 | x4 | x4 | x4 | x3 :|[M:3/8] x | x3 | x3 | x3 | x3 | x3 | x3 | %71
 x3 | x3 | x3 | x3 | x3 | x3 | x3 | x3 | x3 | x2 :: x | x3 | x3 | x3 | x3 |[K:treble] x3 | x3 | %88
 x3 | x3 |[K:bass] x3 | x3 | x3 | x3 | x3 | x3 | x3 | x2 ::[K:F] x | x3 | x3 | x3 | x3 | x3 | x3 | %105
 x3 | x3 | x3 | x3 | x3 | x3 | x3 | x3 | x3 | x2 ::[K:C] x | x3 | x3 | x3 | x3 | x3 | x3 | x3 | %123
 x3 | x3 | x3 | x3 | x3 | x3 | x3 | x3 | x3 | x3 | x3 | x3 | x3 |[K:treble] x3 | x3 | x3 | x3 | %140
[K:bass] x3 | x3 | x3 | x3 | x3 | x3 | x3 | x3 | x3 | x3 | x3 | x3 | x3 | x3 | x3 | x3 | x3 | %157
 !fermata![C,,C,]2 |] %158

